!!!!SEGMENT: pl-kozmzk--mzk-m-159--036_walczynski-franciszek--praeludia-organi-op-5-moderato.krn
!!!cenid: 18xx:2779
!!!COM: Walczyński, Franciszek
!!!COM-rismid: pe30021989
!!!CDT: ~1852-1937
!!!CNT: Polish
!!!OTL: Praeludia organi op. 5 – Moderato
!!!PDT: 1894
!!!AGN: Secular; Prelude
!!!SMS-siglum: PL-KOZmzk
!!!SMS-shelfmark: mzk/m/159
!!!SMS-shelfwork: 036 G
!!!SMS-variant:
!!!SMS-altvar:
!!!NIFC-rismid: 1001118838
!!!URL-scan: https://repozytorium.nifc.pl/islandora/object/pl-kozmzk%3A2265/datastream/PDF/view
!!!ONB-nifc: UWAGA: numeracja plików zgodna z numeracją źrodłową
!!!OMD: 36. Moderato.
**kern	**kern	**dynam
*part2	*part1	*part1
*staff2	*staff1	*
*I"Organo	*I"Organo	*
*clefF4	*clefG2	*
*k[b-e-a-d-]	*k[b-e-a-d-]	*
*M3/2	*M3/2	*
=1	=1	=1
*^	*^	*
4A-/	1.r	1.rg	1.r	p
4B-/	.	.	.	.
2c/	.	.	.	.
2c/	.	.	.	.
=2	=2	=2	=2	=2
4B-/	1.r	1.rg	1.r	.
4A-/	.	.	.	.
2B-/	.	.	.	.
2B-/	.	.	.	.
=3	=3	=3	=3	=3
!	!	!LO:TX:t=P:problem:pf się nie wyświetla	!	!
4B-/	4G\	1.rg	1.r	pf
4c/	4A-\	.	.	.
2d-/	2F\	.	.	.
2d-/	2G\	.	.	.
=4	=4	=4	=4	=4
4c/	4A-\	1.rg	1.r	.
4B-/	4G\	.	.	.
2c/	2A-\	.	.	.
2c/	2A-\	.	.	.
=5	=5	=5	=5	=5
4B-/	4G\	4b-/	4e-\	f
4A-/	4F\	4b-/	4dn\	.
(2.G/	(4E-\	2b-/	2e-\	.
.	4D-X\	.	.	.
.	2C\)	(4cc/	2en\	.
4c/)	.	4b-/)	.	.
=6	=6	=6	=6	=6
2.c/	(4F\	(4a-/	4f\	.
.	4C\	4g/	4en\	.
.	4F\	4a-/	4f\	<
4G/	4E-\	4b-/	4g\	.
2A-/	2AA-\)	2cc/)	2e-X\	[[
=7	=7	=7	=7	=7
(4G/	(4E-\	4b-/	4e-\	p
4A-/	4F\	4b-/	4dn\	.
4B-/	4G\	(2b-/	4e-\	.
4A-/	4F\	.	4d-X\	.
4G/	4E-\	4cc/	4c\	.
4c/)	4C\)	4b-/)	4en\	.
=8	=8	=8	=8	=8
!	!	!	!	!LO:HP:a
4c/	4F\	4a-/	2e-\	>
(2d-^/	4BB-\	4g/	.	.
.	2FF\	2a-/	2f\	.
8c/L	.	.	.	.
8Bn/J	.	.	.	.
2c/)	2FF;\	2a-;/	2f\	]
!!LO:LB:g=original
=9	=9	=9	=9	=9
(4e-/	1.r	(4b-/	(4g\	pp
4f/	.	4b-/	4a-\	.
4e-/	.	2b-/	4g\	.
4d-/	.	.	4f\	.
4c/	.	4.cc/	4en\	.
8dn/L	.	.	8f\L	.
8en/J)	.	8b-/	8g\J	.
=10	=10	=10	=10	=10
(4f/	1.r	(4a-/)	4f\)	.
8c/L	.	4g/	4en\	.
8B-/J	.	.	.	.
4A-/	.	4a-/	4f\	.
4D-/	.	4b-/	8f\L	.
.	.	.	8g\J	.
2C/)	.	2cc/)	2en\	.
=11	=11	=11	=11	=11
4G/	4G\	4b-/	4e-X\	p
4A-/	4F\	4b-/	4dn\	.
2.G/	(4E-\	2b-/	2e-\	.
.	4D-X\	.	.	.
.	4C\	(4cc/	4en\	.
4B-/	4D-\)	4b-/)	4f\	.
=12	=12	=12	=12	=12
4c/	(2E-\	(4a-/	4e-X\	.
4B-/	.	4g/	([4d-\	.
2A-/	2A-\	2a-/	4d-\]	.
.	.	.	8c\L	.
.	.	.	8B-\J	.
2A-/	2AA-\)	2a-/)	2c\)	.
=13	=13	=13	=13	=13
!LO:TX:b:i:t=Ped.	!	!	!	!
(2G-X/	[1.AA-\	(1.a-/	(4c\	p
.	.	.	4e-\	.
1F/	.	.	2e-\	.
.	.	.	2d-\	.
=14	=14	=14	=14	=14
2F-X/	1.AA-\_	4dd-/	2d-\	.
.	.	4b-/	.	.
1E-/	.	2dd-/	1a-\	<
.	.	2cc/)	.	[[
=15	=15	=15	=15	=15
2Dn/	1.AA-\_	(2b-/	4f\	.
.	.	.	4B-\	.
!LO:TX:a:i:t=rit.	!	!	!	!
1D-X/	.	2a-/	[1e-\	>
.	.	2g/	.	.
=16	=16	=16	=16	=16
1.C/)	1.AA-\;]	1.a-/;)	1.e-\])	]
*v	*v	*	*	*
*	*v	*v	*
==	==	==
*-	*-	*-
!!!system-decoration: {(s1,s2)}
!!!EED: Andrzej Borzym
!!!EST: 2021-08-08
!!!ENC: Krzysztof Stępień
!!!END: 2021-07-26
